build/Karasa-Jaga/scalable/places/browser.svg

<svg height="48" width="48" xmlns="http://www.w3.org/2000/svg" xmlns:xlink="http://www.w3.org/1999/xlink"><linearGradient id="a" gradientUnits="userSpaceOnUse" x1="69.428606" x2="69.280074" y1="5.726686" y2="43.29662"><stop offset="0" stop-color="#fff"/><stop offset="1" stop-color="#c8c8c8"/></linearGradient><rect fill="#999" height="46" rx="2.7487" ry="2.1454" width="46" x="1" y="1"/><g transform="translate(-45.76508 .296878)"><path d="m54.40625 4.9375c-1.124188 0-2.267995.7374625-2.75 1.34375s-.631925 1.04468-.75 1.3125a2.6957473 2.6957473 0 0 0 -.03125.0625l-.5625 1.34375a2.6957473 2.6957473 0 0 0 -.1875 1.125l.25 6.65625a2.6957473 2.6957473 0 0 0 .0625.5625c-1.000045.698205-1.750072 1.802943-1.65625 3.15625l1.25 18.40625c.119611 1.724604 1.660309 3.5625 3.71875 3.5625h31.96875c2.057344 0 3.639087-1.740736 3.75-3.59375l1.28125-21.28125c.082274-1.372256-.586715-2.417928-1.53125-3.09375a2.6957473 2.6957473 0 0 0 .0625-.5l.125-2.3125a2.6957473 2.6957473 0 0 0 0-.03125c.090044-2.154932-1.727257-3.84375-3.71875-3.84375h-19.4375l-1.03125-1.625a2.6957473 2.6957473 0 0 0 -2.28125-1.25z" opacity=".07"/><path d="m54.40625 6.25c-.71038 0-1.395787.4375132-1.71875.84375s-.444518.7636397-.5625 1.03125a1.3723804 1.3723804 0 0 0 -.03125.03125l-.5625 1.34375a1.3723804 1.3723804 0 0 0 -.09375.59375l.25 6.65625a1.3723804 1.3723804 0 0 0 .75 1.15625c-1.217823.0484-2.440017 1.111428-2.34375 2.5l1.25 18.40625c.08075 1.164221 1.071387 2.34375 2.40625 2.34375h31.96875c1.334304 0 2.363892-1.113982 2.4375-2.34375l1.28125-21.28125c.08442-1.408138-1.088797-2.352068-2.3125-2.4375a1.3723804 1.3723804 0 0 0 .84375-1.1875l.125-2.3125c.057819-1.383718-1.116262-2.46875-2.40625-2.46875h-20.1875l-1.40625-2.21875a1.3723804 1.3723804 0 0 0 -1.15625-.65625z" opacity=".15"/><path d="m54.390724 7.6114936c-.56249 0-.768133.5527792-1.003906 1.0875651l-.585613 1.3385433.250977 6.650881c.02218-.0012.01853 0 .04183 0h7.863937l3.597332-2.844403h22.044118l.125488-2.300618c.0244-.58394-.483235-1.045737-1.045736-1.045737h-20.914723l-1.840496-2.8862314h-8.533207zm9.578943 8.7841834-3.597332 2.886231h-7.863936c-.584035.02321-1.08616.462651-1.045736 1.045737l1.254883 18.404955c.04044.583083.461252 1.045737 1.045737 1.045737h31.957696c.584485 0 1.010813-.462297 1.045735-1.045737l1.296714-21.291187c.03498-.583437-.503082-1.045736-1.087566-1.045736z" fill="url(#a)"/></g></svg>

<?xml version="1.0" encoding="UTF-8" standalone="no"?>
<!-- Created with Inkscape (http://www.inkscape.org/) -->

<svg
   xmlns:dc="http://purl.org/dc/elements/1.1/"
   xmlns:cc="http://creativecommons.org/ns#"
   xmlns:rdf="http://www.w3.org/1999/02/22-rdf-syntax-ns#"
   xmlns:svg="http://www.w3.org/2000/svg"
   xmlns="http://www.w3.org/2000/svg"
   xmlns:xlink="http://www.w3.org/1999/xlink"
   xmlns:sodipodi="http://sodipodi.sourceforge.net/DTD/sodipodi-0.dtd"
   xmlns:inkscape="http://www.inkscape.org/namespaces/inkscape"
   id="svg5200"
   height="48"
   width="48"
   version="1.1"
   inkscape:version="0.48.3.1 r9886"
   sodipodi:docname="browser.svg">
  <metadata
     id="metadata14">
    <rdf:RDF>
      <cc:Work
         rdf:about="">
        <dc:format>image/svg+xml</dc:format>
        <dc:type
           rdf:resource="http://purl.org/dc/dcmitype/StillImage" />
      </cc:Work>
    </rdf:RDF>
  </metadata>
  <sodipodi:namedview
     pagecolor="#ffffff"
     bordercolor="#666666"
     borderopacity="1"
     objecttolerance="10"
     gridtolerance="10"
     guidetolerance="10"
     inkscape:pageopacity="0"
     inkscape:pageshadow="2"
     inkscape:window-width="1366"
     inkscape:window-height="696"
     id="namedview12"
     showgrid="false"
     inkscape:zoom="3.4766083"
     inkscape:cx="31.996366"
     inkscape:cy="11.864116"
     inkscape:window-x="0"
     inkscape:window-y="0"
     inkscape:window-maximized="1"
     inkscape:current-layer="svg5200" />
  <defs
     id="defs5202">
    <linearGradient
       id="linearGradient5866"
       y2="52"
       gradientUnits="userSpaceOnUse"
       x2="35.047"
       gradientTransform="matrix(0.82609,0,0,0.82754,-2.4348,-2.0319)"
       y1="14.998"
       x1="34.976">
      <stop
         id="stop4170-0"
         style="stop-color:#fff"
         offset="0" />
      <stop
         id="stop4172-51"
         style="stop-color:#c8c8c8"
         offset="1" />
    </linearGradient>
    <linearGradient
       inkscape:collect="always"
       xlink:href="#linearGradient5866"
       id="linearGradient3001"
       gradientUnits="userSpaceOnUse"
       gradientTransform="matrix(0.82609,0,0,0.82754,-3.8585288,3.1545407)"
       x1="34.976"
       y1="14.998"
       x2="35.047"
       y2="52" />
    <linearGradient
       inkscape:collect="always"
       xlink:href="#linearGradient5866"
       id="linearGradient3781"
       x1="62.203274"
       y1="8.9356461"
       x2="62.092308"
       y2="37.003445"
       gradientUnits="userSpaceOnUse"
       gradientTransform="matrix(1.3385422,0,0,1.3385422,-13.833101,-6.2340525)" />
    <linearGradient
       inkscape:collect="always"
       xlink:href="#linearGradient5866"
       id="linearGradient3798"
       gradientUnits="userSpaceOnUse"
       gradientTransform="matrix(1.3385422,0,0,1.3385422,-13.833101,-6.2340525)"
       x1="62.203274"
       y1="8.9356461"
       x2="62.092308"
       y2="37.003445" />
  </defs>
  <rect
     x="1"
     y="1"
     width="46"
     height="46"
     ry="2.1454"
     rx="2.7486999"
     style="color:#000000;fill:#999999"
     id="rect5168" />
  <g
     id="g3793"
     transform="translate(-45.76508,0.29687831)">
    <path
       id="path3790"
       d="m 54.40625,4.9375 c -1.124188,0 -2.267995,0.7374625 -2.75,1.34375 -0.482005,0.6062875 -0.631925,1.04468 -0.75,1.3125 A 2.6957473,2.6957473 0 0 0 50.875,7.65625 L 50.3125,9 a 2.6957473,2.6957473 0 0 0 -0.1875,1.125 l 0.25,6.65625 a 2.6957473,2.6957473 0 0 0 0.0625,0.5625 C 49.437455,18.041955 48.687428,19.146693 48.78125,20.5 l 1.25,18.40625 c 0.119611,1.724604 1.660309,3.5625 3.71875,3.5625 l 31.96875,0 c 2.057344,0 3.639087,-1.740736 3.75,-3.59375 L 90.75,17.59375 C 90.832274,16.221494 90.163285,15.175822 89.21875,14.5 a 2.6957473,2.6957473 0 0 0 0.0625,-0.5 l 0.125,-2.3125 a 2.6957473,2.6957473 0 0 0 0,-0.03125 C 89.496294,9.501318 87.678993,7.8125 85.6875,7.8125 l -19.4375,0 -1.03125,-1.625 a 2.6957473,2.6957473 0 0 0 -2.28125,-1.25 l -8.53125,0 z"
       style="opacity:0.07000002;fill:#000000;fill-opacity:1;stroke:none"
       inkscape:connector-curvature="0" />
    <path
       id="path3785"
       d="M 54.40625,6.25 C 53.69587,6.25 53.010463,6.6875132 52.6875,7.09375 52.364537,7.4999868 52.242982,7.8573897 52.125,8.125 A 1.3723804,1.3723804 0 0 0 52.09375,8.15625 L 51.53125,9.5 a 1.3723804,1.3723804 0 0 0 -0.09375,0.59375 l 0.25,6.65625 a 1.3723804,1.3723804 0 0 0 0.75,1.15625 c -1.217823,0.0484 -2.440017,1.111428 -2.34375,2.5 l 1.25,18.40625 c 0.08075,1.164221 1.071387,2.34375 2.40625,2.34375 l 31.96875,0 c 1.334304,0 2.363892,-1.113982 2.4375,-2.34375 L 89.4375,17.53125 c 0.08442,-1.408138 -1.088797,-2.352068 -2.3125,-2.4375 a 1.3723804,1.3723804 0 0 0 0.84375,-1.1875 l 0.125,-2.3125 C 88.151569,10.210032 86.977488,9.125 85.6875,9.125 L 65.5,9.125 64.09375,6.90625 A 1.3723804,1.3723804 0 0 0 62.9375,6.25 l -8.53125,0 z"
       style="opacity:0.15;fill:#000000;fill-opacity:1;stroke:none"
       inkscape:connector-curvature="0" />
    <path
       inkscape:connector-curvature="0"
       id="path4924"
       d="m 54.390724,7.6114936 c -0.56249,0 -0.768133,0.5527792 -1.003906,1.0875651 l -0.585613,1.3385433 0.250977,6.650881 c 0.02218,-0.0012 0.01853,0 0.04183,0 l 7.863937,0 3.597332,-2.844403 22.044118,0 0.125488,-2.300618 c 0.0244,-0.58394 -0.483235,-1.045737 -1.045736,-1.045737 l -20.914723,0 -1.840496,-2.8862314 -8.533207,0 z m 9.578943,8.7841834 -3.597332,2.886231 -7.863936,0 c -0.584035,0.02321 -1.08616,0.462651 -1.045736,1.045737 L 52.717546,38.7326 c 0.04044,0.583083 0.461252,1.045737 1.045737,1.045737 l 31.957696,0 c 0.584485,0 1.010813,-0.462297 1.045735,-1.045737 l 1.296714,-21.291187 c 0.03498,-0.583437 -0.503082,-1.045736 -1.087566,-1.045736 l -23.006195,0 z"
       clip-path="none"
       mask="none"
       style="fill:url(#linearGradient3798);fill-opacity:1;stroke:none" />
  </g>
</svg>
